lib/logo_updates/nrk-logo-nrk-1-with-bg.svg

<svg width="192" height="84" viewBox="0 0 192 84" fill="none" xmlns="http://www.w3.org/2000/svg">
<rect width="192" height="84" fill="#0A2343"/>
<path d="M20 63V21.0038H33.7802V63H20ZM52.5283 27.6877L60.4532 63H45.3721L35.9092 21.0038H44.3676C46.3072 20.9786 48.1892 21.6624 49.6607 22.9264C51.1347 24.1373 52.1473 25.8184 52.5283 27.6877ZM62.5233 63V21.0038H76.3035V63H62.5233ZM86.7116 36.9743C85.2267 36.9888 83.7656 36.6003 82.4839 35.8504C81.2193 35.1194 80.1688 34.0689 79.438 32.8041C78.6872 31.5222 78.2986 30.0607 78.3134 28.5751C78.2964 27.0986 78.6853 25.6458 79.438 24.3755C80.1766 23.1245 81.2259 22.0853 82.4839 21.3588C83.766 20.6098 85.2269 20.2213 86.7116 20.2348C88.1877 20.2189 89.6399 20.6078 90.9108 21.3588C92.1562 22.0917 93.1943 23.13 93.9271 24.3755C94.6789 25.6462 95.0677 27.0987 95.0517 28.5751C95.0655 30.0605 94.6769 31.5218 93.9271 32.8041C93.202 34.0633 92.1627 35.113 90.9108 35.8504C89.6398 36.6029 88.1866 36.9918 86.7097 36.9743H86.7116ZM97.1807 63V21.0038H110.962V63H97.1807ZM128.408 43.9538C128.447 43.9946 128.742 44.4776 129.295 45.403C129.848 46.3283 130.567 47.5114 131.454 48.952C132.341 50.392 133.277 51.9199 134.262 53.536C135.247 55.1521 136.174 56.6803 137.043 58.1202C137.908 59.5602 138.894 61.1867 140 63H124.859C123.912 61.4621 123.055 60.0721 122.286 58.83C121.517 57.5878 120.7 56.2471 119.833 54.8077C118.965 53.3698 118.107 51.9699 117.259 50.6081C116.41 49.2464 115.681 48.0536 115.071 47.0297C114.459 46.0051 114.035 45.3149 113.799 44.9594C113.214 44.0771 112.868 43.058 112.794 42.0019C112.853 40.9883 113.179 40.0084 113.74 39.1619C113.976 38.7676 114.41 38.0675 115.041 37.062C115.672 36.0564 116.411 34.8637 117.259 33.4835C118.106 32.1034 118.965 30.6936 119.833 29.2543C120.702 27.815 121.519 26.4643 122.286 25.2025C123.056 23.9419 123.914 22.5421 124.859 21.0029H140L128.289 40.1082C127.926 40.6755 127.722 41.3292 127.697 42.0019C127.736 42.7081 127.983 43.3871 128.406 43.9538H128.408Z" fill="white"/>
<path d="M168.954 21C168.008 21.4732 167.111 21.9366 166.263 22.3901C165.415 22.8436 164.587 23.2675 163.779 23.6619C162.97 24.0562 162.152 24.4506 161.324 24.8449C160.496 25.2393 159.648 25.5942 158.78 25.9097C157.913 26.2258 156.986 26.5412 156 26.8561L157.301 31.884C158.484 31.5291 159.559 31.1742 160.526 30.8193C161.472 30.4732 162.4 30.0783 163.305 29.6362C164.193 29.2024 165.08 28.7292 165.967 28.2166L165.997 28.1988V63H172.149V21.002L168.954 21Z" fill="#8BB5EB"/>
</svg>

<svg xmlns="http://www.w3.org/2000/svg" viewBox="0 0 192 84"><path fill="#0A2343" d="M0 0h192v84H0z"/><path fill="#fff" d="M20 63V21.004h13.78V63H20Zm32.528-35.312L60.453 63h-15.08l-9.464-41.996h8.459a7.965 7.965 0 0 1 5.293 1.922 8.31 8.31 0 0 1 2.867 4.762ZM62.523 63V21.004h13.78V63h-13.78Zm24.189-26.026a8.213 8.213 0 0 1-4.228-1.124 8.336 8.336 0 0 1-3.046-3.046 8.206 8.206 0 0 1-1.125-4.229 8.056 8.056 0 0 1 1.125-4.2 8.437 8.437 0 0 1 3.046-3.016 8.233 8.233 0 0 1 4.228-1.124 8.083 8.083 0 0 1 4.199 1.124 8.504 8.504 0 0 1 3.016 3.016 8.075 8.075 0 0 1 1.125 4.2 8.226 8.226 0 0 1-1.125 4.23 8.4 8.4 0 0 1-3.016 3.045 8.059 8.059 0 0 1-4.201 1.124h.002ZM97.18 63V21.004h13.781V63H97.181Zm31.227-19.046c.039.04.334.524.887 1.449.553.925 1.272 2.108 2.159 3.549a1143.28 1143.28 0 0 1 5.589 9.168A854.89 854.89 0 0 0 140 63h-15.141c-.947-1.538-1.804-2.928-2.573-4.17a388.795 388.795 0 0 1-2.453-4.022 355.984 355.984 0 0 0-2.574-4.2 210.645 210.645 0 0 1-2.188-3.578 62.13 62.13 0 0 0-1.272-2.07 6.127 6.127 0 0 1-1.005-2.958 5.745 5.745 0 0 1 .946-2.84c.236-.394.67-1.094 1.301-2.1.631-1.006 1.37-2.198 2.218-3.578.847-1.38 1.706-2.79 2.574-4.23.869-1.439 1.686-2.79 2.453-4.052.77-1.26 1.628-2.66 2.573-4.2H140l-11.711 19.106a3.773 3.773 0 0 0-.592 1.894c.039.706.286 1.385.709 1.952h.002Z"/><path fill="#8BB5EB" d="M168.954 21c-.946.473-1.843.937-2.691 1.39a75.5 75.5 0 0 1-2.484 1.272c-.809.394-1.627.789-2.455 1.183-.828.394-1.676.75-2.544 1.065a72.75 72.75 0 0 1-2.78.946l1.301 5.028a56.674 56.674 0 0 0 3.225-1.065 29.15 29.15 0 0 0 2.779-1.183 43.35 43.35 0 0 0 2.662-1.42l.03-.017V63h6.152V21.002L168.954 21Z"/></svg>
